sprites/streets-v8/_svg/hospital-15.svg

<?xml version="1.0" encoding="UTF-8" standalone="no"?>
<svg
   xmlns:dc="http://purl.org/dc/elements/1.1/"
   xmlns:cc="http://creativecommons.org/ns#"
   xmlns:rdf="http://www.w3.org/1999/02/22-rdf-syntax-ns#"
   xmlns:svg="http://www.w3.org/2000/svg"
   xmlns="http://www.w3.org/2000/svg"
   id="svg2"
   width="23"
   height="23"
   viewBox="0 0 23 23"
   version="1.1">
  <metadata
     id="metadata14">
    <rdf:RDF>
      <cc:Work
         rdf:about="">
        <dc:format>image/svg+xml</dc:format>
        <dc:type
           rdf:resource="http://purl.org/dc/dcmitype/StillImage" />
      </cc:Work>
    </rdf:RDF>
  </metadata>
  <defs
     id="defs12" />
  <ellipse
     id="ellipse4"
     ry="11.5"
     rx="11.5"
     cy="11.5"
     cx="11.5"
     style="fill:#ffffff;stroke:none;" />
  <ellipse
     id="ellipse6"
     ry="10.5"
     rx="10.5"
     cy="11.5"
     cx="11.5"
     style="fill:#b28b8b;stroke:none;" />
  <g
     id="g8"
     transform="translate(4,4)">
    <path id="rect4194" d="M 7 1 C 6.446 1 6 1.4459999 6 2 L 6 6 L 2 6 C 1.4459999 6 1 6.446 1 7 L 1 8 C 1 8.554 1.4459999 9 2 9 L 6 9 L 6 13 C 6 13.554 6.446 14 7 14 L 8 14 C 8.554 14 9 13.554 9 13 L 9 9 L 13 9 C 13.554 9 14 8.554 14 8 L 14 7 C 14 6.446 13.554 6 13 6 L 9 6 L 9 2 C 9 1.4459999 8.554 1 8 1 L 7 1 z "     style="opacity:1;fill:#ffffff;fill-opacity:1;stroke:none;stroke-width:3;stroke-linecap:round;stroke-linejoin:round;stroke-miterlimit:4;stroke-dasharray:none;stroke-dashoffset:0;stroke-opacity:1;marker:none" />
  </g>
</svg>

<?xml version="1.0" encoding="utf-8"?>
<!-- Generator: Adobe Illustrator 17.1.0, SVG Export Plug-In . SVG Version: 6.00 Build 0)  -->
<!DOCTYPE svg PUBLIC "-//W3C//DTD SVG 1.1//EN" "http://www.w3.org/Graphics/SVG/1.1/DTD/svg11.dtd">
<svg version="1.1"
	 id="svg2" xmlns:svg="http://www.w3.org/2000/svg" xmlns:cc="http://creativecommons.org/ns#" xmlns:dc="http://purl.org/dc/elements/1.1/" xmlns:rdf="http://www.w3.org/1999/02/22-rdf-syntax-ns#"
	 xmlns="http://www.w3.org/2000/svg" xmlns:xlink="http://www.w3.org/1999/xlink" x="0px" y="0px" width="23px" height="23px"
	 viewBox="0 0 23 23" enable-background="new 0 0 23 23" xml:space="preserve">
<ellipse id="ellipse4" fill="#FFFFFF" cx="11.5" cy="11.5" rx="11.5" ry="11.5"/>
<ellipse id="ellipse6" fill="#B28B8B" cx="11.5" cy="11.5" rx="10.5" ry="10.5"/>
<g id="g8" transform="translate(4,4)">
	<path id="rect4194" fill="#FFFFFF" d="M7,1C6.4,1,6,1.4,6,2v4H2C1.4,6,1,6.4,1,7v1c0,0.6,0.4,1,1,1h4v4c0,0.6,0.4,1,1,1h1
		c0.6,0,1-0.4,1-1V9h4c0.6,0,1-0.4,1-1V7c0-0.6-0.4-1-1-1H9V2c0-0.6-0.4-1-1-1H7z"/>
</g>
</svg>
